X: 1
T: MISSISSIPPI -- HORNPIPE
B: Ryan's Mammoth Collection of Fiddle Tunes
R: hornpipe
M: 2/4
L: 1/16
Z: Contributed 20000427145324 by John Chambers jchambers:casc.com
K: G
((3udef) \
| gdBd GBdg | edef agfe | dgfe dBGB | edcB A2((3def) |
| gdBd GBdg | edef agfe | dgfe dcBA | G2g2G2 :|
|: (uga) \
| bagb agfa | gfeg fedf | edc"4"e dBGB | edcB A2(ga) |
| bagb agfa | gfeg fedf | edc"4"e dfga | bagf g2 :|
